src/static/logos/mio.svg

<?xml version="1.0" encoding="UTF-8"?>
<svg width="512px" height="229px" viewBox="0 0 512 229" version="1.1" xmlns="http://www.w3.org/2000/svg" xmlns:xlink="http://www.w3.org/1999/xlink" preserveAspectRatio="xMidYMid">
    <g>
				<polyline fill="#963398" points="156.60973 17.2511712 156.60973 228.28973 116.307027 187.998559 0 187.998559 0 17.2511712 156.171532 17.2511712"></polyline>
				<polygon fill="#1EBDBF" points="174.725766 0 174.725766 211.038559 134.423063 170.735856 18.116036 170.735856 18.116036 0"></polygon>
				<polygon fill="#492670" points="18.116036 17.2511712 18.116036 170.83964 134.457658 170.83964 156.575135 192.991712 156.575135 17.6663063"></polygon>
				<path d="M42.9203604,83.7996396 C47.9596396,83.7996396 52.0533333,88.1816216 52.0533333,93.6014414 C52.0533333,99.0212613 47.9711712,103.414775 42.9203604,103.414775 C37.8695495,103.414775 33.7989189,99.0212613 33.7989189,93.6014414 C33.7989189,88.1816216 37.8810811,83.7996396 42.9203604,83.7996396 Z M86.2673874,83.7996396 C88.8659623,83.8179157 91.3506631,84.8685513 93.1740652,86.7200723 C94.9974673,88.5715933 96.0099585,91.0720804 95.9884685,93.6706306 C95.9059786,99.0191442 91.5178556,103.296074 86.1689864,103.241292 C80.8201173,103.186509 76.5205133,98.8206006 76.5473336,93.4715195 C76.5746604,88.1224385 80.9182378,83.8002757 86.2673874,83.7996396 Z M130.271712,83.7996396 C132.868281,83.8209601 135.350022,84.8729357 137.170934,86.7241249 C138.991847,88.5753141 140.002758,91.0740632 139.981261,93.6706306 C139.892451,99.0111494 135.506802,103.277109 130.165871,103.218147 C124.824939,103.159185 120.534536,98.7974457 120.563355,93.4562679 C120.592761,88.1150901 124.930455,83.800378 130.271712,83.7996396 Z" fill="#FFFFFF"></path>
				<path d="M489.271351,90.314955 C496.0352,93.8931515 501.654248,99.3043833 505.484685,105.928649 C513.233876,120.008387 513.233876,137.075577 505.484685,151.155315 C501.650788,157.776872 496.032623,163.187253 489.271351,166.769009 C481.965121,170.613747 473.805661,172.549487 465.550991,172.396396 C457.350049,172.56265 449.243239,170.625273 442.003604,166.769009 C435.326569,163.161646 429.796763,157.751705 426.043964,151.155315 C418.390988,137.043695 418.421385,120.012861 426.124685,105.928649 L426.113153,105.928649 C429.935149,99.321937 435.526629,93.9141763 442.257297,90.314955 C457.026657,82.7955338 474.501992,82.7955338 489.271351,90.314955 Z M346.222703,50.7156757 C346.875849,52.1616219 347.168657,53.7443752 347.076036,55.3282883 L347.076036,166.261622 C347.314664,167.40409 346.961144,168.589862 346.135863,169.415143 C345.310583,170.240423 344.12481,170.593943 342.982342,170.355315 L327.495495,170.355315 C326.334699,170.460853 325.176987,170.123015 324.255135,169.40973 C323.487498,168.550255 323.11524,167.408383 323.228829,166.261622 L323.228829,101.915676 L294.4,136.221982 C293.297539,137.558599 292.06959,138.786548 290.732973,139.889009 C289.973042,140.478766 289.042508,140.806476 288.080721,140.823063 C287.152791,140.776639 286.260509,140.451078 285.520721,139.889009 C284.169844,138.829008 282.96409,137.596114 281.934414,136.221982 L253.105586,101.915676 L253.105586,166.261622 C253.225013,167.409009 252.852003,168.553189 252.079279,169.40973 C251.157428,170.123015 249.999715,170.460853 248.838919,170.355315 L233.25982,170.355315 C232.117352,170.593943 230.931579,170.240423 230.106299,169.415143 C229.281018,168.589862 228.927498,167.40409 229.166126,166.261622 L229.166126,55.3513514 C229.166126,51.2230631 230.423063,49.181982 232.936937,49.181982 C234.05662,49.2274092 235.132016,49.6316935 236.004324,50.3351351 C237.467686,51.5142068 238.78748,52.8610935 239.936577,54.3481081 L288.369009,109.295856 L336.328649,54.3481081 C337.609436,52.9275834 338.976595,51.5873829 340.422342,50.3351351 C341.154026,49.6802885 342.076659,49.2824272 343.050114,49.1973792 L343.316757,49.181982 C344.501828,49.0817015 345.636789,49.6807087 346.222703,50.7156757 Z M379.698739,86.7055856 L394.53982,86.7055856 C395.716985,86.5968197 396.892529,86.9297534 397.837838,87.6396396 C398.599425,88.5066693 398.966927,89.6509379 398.852613,90.7992793 L398.852613,166.238559 C398.969324,167.383648 398.601319,168.525303 397.837838,169.386667 C396.908823,170.09458 395.749705,170.431629 394.585946,170.332252 L379.698739,170.332252 C378.556271,170.57088 377.370498,170.21736 376.545218,169.39208 C375.719937,168.566799 375.366417,167.381027 375.605045,166.238559 L375.605045,90.8223423 C375.489827,89.6802642 375.824963,88.5383201 376.539099,87.6396396 C377.430126,86.9280084 378.564001,86.5928114 379.698739,86.7055856 Z M454.538378,108.569369 C451.279574,110.398074 448.61406,113.123623 446.858378,116.422342 C443.099361,124.056788 443.099361,133.004113 446.858378,140.638559 C448.611066,143.936513 451.277593,146.659094 454.538378,148.48 C457.744449,150.245406 461.33678,151.18398 464.990916,151.215395 L465.539459,151.212973 C469.437085,151.269458 473.285438,150.337125 476.725045,148.503063 C480.080859,146.680928 482.836603,143.925183 484.658739,140.569369 C488.517218,133.011231 488.517218,124.061201 484.658739,116.503063 C482.830239,113.152006 480.076102,110.397869 476.725045,108.569369 C473.456874,106.82609 469.821878,105.890714 466.12384,105.837463 L465.539459,105.836396 C461.697588,105.77892 457.906705,106.72068 454.538378,108.569369 Z M394.459099,46.276036 C396.511517,47.4791683 398.194664,49.2221431 399.325405,51.3153153 C401.605385,55.6461837 401.605385,60.8222848 399.325405,65.1531532 C398.204234,67.2295178 396.516739,68.9450043 394.459099,70.1001802 C392.377397,71.2423146 390.049537,71.8552752 387.680139,71.8886379 L387.205766,71.8875676 C384.729843,71.9221032 382.288273,71.305746 380.125405,70.1001802 C378.063058,68.9511732 376.374025,67.2341227 375.259099,65.1531532 C372.979119,60.8222848 372.979119,55.6461837 375.259099,51.3153153 C376.38302,49.2171625 378.067772,47.472526 380.125405,46.276036 C382.135759,45.0939278 384.41346,44.4487352 386.739894,44.3984946 L387.205766,44.3963964 C389.749489,44.3516594 392.257248,45.0015235 394.459099,46.276036 Z" fill="#3E1B67"></path>
		</g>
</svg>

<svg width="512" height="229" xmlns="http://www.w3.org/2000/svg" preserveAspectRatio="xMidYMid"><path fill="#963398" d="M156.61 17.251V228.29l-40.303-40.291H0V17.25h156.172"/><path fill="#1EBDBF" d="M174.726 0v211.039l-40.303-40.303H18.116V0z"/><path fill="#492670" d="M18.116 17.251V170.84h116.342l22.117 22.152V17.666z"/><path d="M42.92 83.8c5.04 0 9.133 4.382 9.133 9.801 0 5.42-4.082 9.814-9.133 9.814-5.05 0-9.121-4.394-9.121-9.814S37.88 83.8 42.92 83.8zm43.347 0a9.79 9.79 0 019.721 9.87 9.721 9.721 0 11-9.721-9.871zm44.005 0a9.79 9.79 0 019.71 9.87 9.71 9.71 0 11-9.71-9.871z" fill="#FFF"/><path d="M489.271 90.315a40.73 40.73 0 0116.214 15.614 46.899 46.899 0 010 45.226 40.81 40.81 0 01-16.214 15.614 48.986 48.986 0 01-23.72 5.627 48.017 48.017 0 01-23.547-5.627 40.522 40.522 0 01-15.96-15.614 47.28 47.28 0 01.08-45.226h-.01a40.972 40.972 0 0116.143-15.614 51.811 51.811 0 0147.014 0zm-143.048-39.6a9.813 9.813 0 01.853 4.613v110.934a3.46 3.46 0 01-4.094 4.093h-15.487a4.613 4.613 0 01-3.24-.945 4.117 4.117 0 01-1.026-3.148v-64.346L294.4 136.222a27.134 27.134 0 01-3.667 3.667c-.76.59-1.69.917-2.652.934a4.613 4.613 0 01-2.56-.934 19.604 19.604 0 01-3.587-3.667l-28.828-34.306v64.346a4.07 4.07 0 01-1.027 3.148 4.613 4.613 0 01-3.24.945h-15.58a3.46 3.46 0 01-4.093-4.093V55.352c0-4.129 1.257-6.17 3.77-6.17 1.12.045 2.196.45 3.068 1.153a23.997 23.997 0 013.933 4.013l48.432 54.948 47.96-54.948a46.53 46.53 0 014.093-4.013 4.532 4.532 0 012.628-1.138l.267-.015c1.185-.1 2.32.499 2.906 1.534zm33.476 35.99h14.84a4.763 4.763 0 013.299.935 4.163 4.163 0 011.015 3.16v75.439a4.117 4.117 0 01-1.015 3.148 4.705 4.705 0 01-3.252.945h-14.887a3.46 3.46 0 01-4.094-4.093V90.822a4.405 4.405 0 01.934-3.182 4.37 4.37 0 013.16-.934zm74.84 21.864a19.523 19.523 0 00-7.68 7.853 27.41 27.41 0 000 24.217 19.42 19.42 0 007.68 7.841 22.063 22.063 0 0010.452 2.735l.548-.002a23.063 23.063 0 0011.186-2.71 19.754 19.754 0 007.934-7.934 26.465 26.465 0 000-24.066 19.892 19.892 0 00-7.934-7.934 23.236 23.236 0 00-10.601-2.732h-.585a22.175 22.175 0 00-11 2.732zm-60.08-62.293a13.008 13.008 0 014.866 5.04 14.853 14.853 0 010 13.837 12.466 12.466 0 01-4.866 4.947 14.518 14.518 0 01-6.779 1.789l-.474-.001a14.138 14.138 0 01-7.08-1.788 12.327 12.327 0 01-4.867-4.947 14.853 14.853 0 010-13.838 12.846 12.846 0 014.866-5.039 13.63 13.63 0 016.615-1.878l.466-.002a13.988 13.988 0 017.253 1.88z" fill="#3E1B67"/></svg>
